svg/server.svg

<svg width="24" height="24" viewBox="0 0 24 24" fill="none" xmlns="http://www.w3.org/2000/svg">
<path fill-rule="evenodd" clip-rule="evenodd" d="M19.0003 2.99995H21.0003L21.0003 2.99997V4.99997L21.0003 21L21.0002 21H3.00024V19H3.00026V12.9999H3.00024V10.9999H3.00026V4.99997V2.99997H5.00027H19.0003V2.99995ZM5.00027 12.9999V19H19.0003V12.9999H5.00027ZM19.0003 10.9999H5.00027V4.99997H19.0003V10.9999ZM7.0001 6.99996H9.0001V8.99996H7.0001V6.99996ZM9.0001 15H7.0001V17H9.0001V15Z" fill="currentColor"/>
</svg>

<svg width="24" height="24" fill="none" xmlns="http://www.w3.org/2000/svg"><path d="M3 3h18v18H3V3zm2 2v6h14V5H5zm14 8H5v6h14v-6zM7 7h2v2H7V7zm2 8H7v2h2v-2z" fill="currentColor"/></svg>
